!!!OTL: Sebastopollied (3-32), S. 104
!!!id: P1004
**kern
*clefG2
*k[f#]
*g:
{8d
=1
8.g
8a
16b-
=2
8.a
16b-
8a
=3
8.g
16f#
8g
=4
4d}
=5
{8d
=6
8.g
16a
8b-
=7
4dd
8a
=8
8cc
8b-
16a
16a
=9
4g}
8r
=10
{8.g
16a
8b-
=11
8.a
16b-
8a
=12
8.g
16f#
8g
=13
4d}
=14
{8d
=15
8.g
16a
8b-
=16
8.dd
16cc
8a
=17
8cc
8b-
8a
=18
4g}
==
*-
!!!minrhy: 16
!!!meters: 3/8 ]  ZZ[4
!!!cut: Sebastopollied (3-32), S. 104
!!!reg: Lothringen
!!!trd: PINCK, Louis: Verklingende Weisen, Bd3, Metz 1933
!!!rhy1: X_  X_.X_X  X_.XX_  X_.XX_  X__
!!!rhy2: X_  X_.XX_  X__X_  X_X_XX  X__0_
!!!key: P1004  16  G 3/8 ]  ZZ[4
!!!mod: SECHSTONSKALA MOLL ?]  AMBITUS[8
!!!kad: -51-51
!!!akz: 121-5_1541_121-5_1541_
!!!fot: 'a__b__c__bv_
!!!for: 'a__b__c__d__
!!!fok: '^__^a_^d_^a_
!! PHRAS[VORWIEGEND AUFTAKTIG]
!!!fkt: historisches, Soldatenlied
!! LOTH VKL
!! PR[26] 2K[7] 2G[13] 3K[7] 3G[3] 4A[4] 4Ü[0] 5A[0] 6K[0] 6G[0]
!! 7K[0] 7G[0] 8A[0] MEHR[0] SI[35] ABS[68] SR[21] SP[15]
!! ST[17] 2k[7] 2g[18] 3k[7] 3g[1] 4d[1] 4ü[0] 5d[0] 6k[3] 6g[0]
!! 7k[0] 7g[0] 8d[0] mehr[0] si[38] dm[-3] sr[25] sp[13]
!! 1F[42] 2F[49] 3F[5] 4F[0] LF[0] 2P[3] 3P[1] 4P[0] TRI[0] DF[5] AB[77]
!! TF[0] U3K[0] U3[0] U4[0] U4Ü[0] U5[0] U6K[0] U6[0] U7K[0] U7[0]
!! N1[0] N2K[0] N2[7] N3K[0] N3[23] N4[17] N4Ü[0] N5[30] N6K[0] N6[6]
!!!n7k: 0] N7[6] O1[7] O2K[0] O2[3] O3K[0] O3[0] HÖ[0
